img/car_icon-icons.com_59932.svg

<svg width="800" height="800" fill="none" xmlns="http://www.w3.org/2000/svg"><path d="M231.224 521.992c-49.917 0-90.529 40.611-90.529 90.528 0 49.916 40.612 90.513 90.529 90.513 49.916 0 90.512-40.597 90.512-90.513-.001-49.916-40.596-90.528-90.512-90.528Zm0 152.046c-33.931 0-61.534-27.588-61.534-61.518s27.604-61.534 61.534-61.534 61.518 27.604 61.518 61.534-27.588 61.518-61.518 61.518ZM597.512 521.992c-49.916 0-90.528 40.611-90.528 90.528 0 49.916 40.612 90.513 90.528 90.513 49.917 0 90.513-40.597 90.513-90.513-.001-49.916-40.596-90.528-90.513-90.528Zm0 152.046c-33.929 0-61.533-27.588-61.533-61.518s27.604-61.534 61.533-61.534c33.931 0 61.518 27.604 61.518 61.534s-27.588 61.518-61.518 61.518ZM773.749 96.967h-449.23c-1.456 0-2.896.21-4.288.647-208.969 64.851-212.415 85.562-213.887 94.396-.13.793-.194 1.586-.194 2.379v16.714c0 7.945 6.391 14.416 14.336 14.498l48.541.566H773.75c8.01 0 14.497-6.489 14.497-14.498V111.465c-.001-8.01-6.488-14.498-14.498-14.498Zm-14.497 100.205H169.188l-30.889-.356c23.315-14.87 111.062-46.761 188.42-70.854h432.532v71.21h.001Z" fill="#FBD42C"/><path d="M772.648 515.066h-12.054V324.624c0-32.166-26.164-58.347-58.347-58.347H237.064c-33.089 0-163.68 111.32-191.413 163.163-10.712 20.048-9.967 55.061-6.375 85.626H26.25c-8.01 0-14.497 6.488-14.497 14.498v58.768c0 8.008 6.487 14.497 14.497 14.497h81.613c6.941 0 12.912-4.92 14.239-11.732 10.145-52.035 56.032-89.816 109.12-89.816 53.071 0 98.975 37.781 109.119 89.816a14.49 14.49 0 0 0 14.224 11.732h119.879c6.942 0 12.913-4.92 14.239-11.732 10.145-52.035 56.033-89.816 109.12-89.816 53.071 0 98.975 37.781 109.12 89.816 1.328 6.813 7.28 11.732 14.223 11.732h51.501c8.01 0 14.499-6.489 14.499-14.497v-58.768c0-8.009-6.489-14.498-14.499-14.498Zm-14.497 58.768h-25.58c-17.039-59.496-71.905-101.549-134.767-101.549-62.878 0-117.744 42.053-134.766 101.549h-97.05c-17.038-59.496-71.905-101.549-134.766-101.549-62.877 0-117.744 42.053-134.766 101.549h-55.71v-29.772h15.129c4.224 0 8.252-1.845 11.003-5.064a14.462 14.462 0 0 0 3.316-11.634c-6.148-40.029-5.775-71.533 1.036-84.251 25.81-48.266 146.612-144.863 165.834-147.84h465.184c16.197 0 29.352 13.171 29.352 29.351v204.94c0 8.008 6.505 14.497 14.498 14.497h12.054v29.773h-.001Z" fill="#FBD42C"/><path d="M310.766 318.897c-.729-.033-17.814-1.133-34.998-1.133-26.616 0-35.24 2.541-40.531 6.618-8.333 6.423-48.218 48.799-60.256 61.63a14.477 14.477 0 0 0-2.718 15.663 14.489 14.489 0 0 0 13.3 8.737l123.57.08h.015c7.945 0 14.4-6.391 14.498-14.334l.68-62.635c.079-7.701-5.874-14.125-13.56-14.626Zm-15.97 62.603-75.578-.05c15.031-15.76 28.17-29.189 32.7-33.234 2.022-.469 8.155-1.457 23.85-1.457 6.796 0 13.688.195 19.417.404l-.389 34.337ZM664.824 381.499h-285.81v-48.461c0-8.009-6.487-14.497-14.497-14.497-8.009 0-14.497 6.488-14.497 14.497v62.958c0 8.01 6.488 14.497 14.497 14.497h300.307c8.009 0 14.498-6.487 14.498-14.497 0-7.994-6.489-14.497-14.498-14.497Z" fill="#FBD42C"/></svg>

<svg width="800" height="800" viewBox="0 0 800 800" fill="none" xmlns="http://www.w3.org/2000/svg">
<path d="M231.224 521.992C181.307 521.992 140.695 562.603 140.695 612.52C140.695 662.436 181.307 703.033 231.224 703.033C281.14 703.033 321.736 662.436 321.736 612.52C321.735 562.604 281.14 521.992 231.224 521.992ZM231.224 674.038C197.293 674.038 169.69 646.45 169.69 612.52C169.69 578.59 197.294 550.986 231.224 550.986C265.154 550.986 292.742 578.59 292.742 612.52C292.742 646.45 265.154 674.038 231.224 674.038Z" fill="#FBD42C"/>
<path d="M597.512 521.992C547.596 521.992 506.984 562.603 506.984 612.52C506.984 662.436 547.596 703.033 597.512 703.033C647.429 703.033 688.025 662.436 688.025 612.52C688.024 562.604 647.429 521.992 597.512 521.992ZM597.512 674.038C563.583 674.038 535.979 646.45 535.979 612.52C535.979 578.59 563.583 550.986 597.512 550.986C631.443 550.986 659.03 578.59 659.03 612.52C659.03 646.45 631.442 674.038 597.512 674.038Z" fill="#FBD42C"/>
<path d="M773.749 96.9668H324.519C323.063 96.9668 321.623 97.1778 320.231 97.6138C111.262 162.465 107.816 183.176 106.344 192.01C106.214 192.803 106.15 193.596 106.15 194.389V211.103C106.15 219.048 112.541 225.519 120.486 225.601L169.027 226.167H773.75C781.76 226.167 788.247 219.678 788.247 211.669V111.465C788.246 103.455 781.759 96.9668 773.749 96.9668ZM759.252 197.172H169.188L138.299 196.816C161.614 181.946 249.361 150.055 326.719 125.962H759.251V197.172H759.252Z" fill="#FBD42C"/>
<path d="M772.648 515.066H760.594V324.624C760.594 292.458 734.43 266.277 702.247 266.277H237.064C203.975 266.277 73.3839 377.597 45.6509 429.44C34.9389 449.488 35.6839 484.501 39.2759 515.066H26.2509C18.2409 515.066 11.7539 521.554 11.7539 529.564V588.332C11.7539 596.34 18.2409 602.829 26.2509 602.829H107.864C114.805 602.829 120.776 597.909 122.103 591.097C132.248 539.062 178.135 501.281 231.223 501.281C284.294 501.281 330.198 539.062 340.342 591.097C341.669 597.91 347.624 602.829 354.566 602.829H474.445C481.387 602.829 487.358 597.909 488.684 591.097C498.829 539.062 544.717 501.281 597.804 501.281C650.875 501.281 696.779 539.062 706.924 591.097C708.252 597.91 714.204 602.829 721.147 602.829H772.648C780.658 602.829 787.147 596.34 787.147 588.332V529.564C787.147 521.555 780.658 515.066 772.648 515.066ZM758.151 573.834H732.571C715.532 514.338 660.666 472.285 597.804 472.285C534.926 472.285 480.06 514.338 463.038 573.834H365.988C348.95 514.338 294.083 472.285 231.222 472.285C168.345 472.285 113.478 514.338 96.4559 573.834H40.7459V544.062H55.8749C60.0989 544.062 64.1269 542.217 66.8779 538.998C69.6289 535.794 70.8419 531.54 70.1939 527.364C64.0459 487.335 64.4189 455.831 71.2299 443.113C97.0399 394.847 217.842 298.25 237.064 295.273H702.248C718.445 295.273 731.6 308.444 731.6 324.624V529.564C731.6 537.572 738.105 544.061 746.098 544.061H758.152V573.834H758.151Z" fill="#FBD42C"/>
<path d="M310.766 318.897C310.037 318.864 292.952 317.764 275.768 317.764C249.152 317.764 240.528 320.305 235.237 324.382C226.904 330.805 187.019 373.181 174.981 386.012C171.034 390.22 169.964 396.384 172.263 401.675C174.56 406.983 179.786 410.412 185.563 410.412L309.133 410.492C309.133 410.492 309.133 410.492 309.148 410.492C317.093 410.492 323.548 404.101 323.646 396.158L324.326 333.523C324.405 325.822 318.452 319.398 310.766 318.897ZM294.796 381.5L219.218 381.45C234.249 365.69 247.388 352.261 251.918 348.216C253.94 347.747 260.073 346.759 275.768 346.759C282.564 346.759 289.456 346.954 295.185 347.163L294.796 381.5Z" fill="#FBD42C"/>
<path d="M664.824 381.499H379.014V333.038C379.014 325.029 372.527 318.541 364.517 318.541C356.508 318.541 350.02 325.029 350.02 333.038V395.996C350.02 404.006 356.508 410.493 364.517 410.493H664.824C672.833 410.493 679.322 404.006 679.322 395.996C679.322 388.002 672.833 381.499 664.824 381.499Z" fill="#FBD42C"/>
</svg>
